!!!COM: Music21
!!!OTL: Marcha Procesional
!!!OMV: pezas_marchas_marcha-procesional-3_marcha-procesional-partitura-2.musicxml
**kern
*part1
*staff1
*I"Bagpipes
*I'Bag
*clefG^2
*k[]
*M2/4
=1
!LO:TX:a:t=Adagio
*MM70
!LO:TX:a:t=[quarter]=70
4r
8.eeL
16ffJk
=||
4.gg
8ff
=
4ee
8.ggL
16aaJk
=
4.bb
16aaLL
16ggJJ
=
4ff
8.ffL
16ggJk
=
4aa
4bb
=
8.ggL
16ffJk
16ggLL
16ff
16ee
16ffJJ
=
4.gg
8ff
=
4ee
8.eeL
16ffJk
=
4.gg
8ff
!!linebreak:original
=
4ee
8.eeL
16ffJk
!!linebreak:original
=
4.gg
8ff
=
4ee
8ggL
8aaJ
=
4.bb
16aaLL
16ggJJ
=
4ff
8.ffL
16ggJk
=
4aa
4bb
=
4gg
8ffL
16ggL
16ffJJ
=
[2ee
=
4ee]
8.eeL
16ffJk
=||
4.gg
8ff
=
4ee
8.ggL
16aaJk
=
4.bb
16aaLL
16ggJJ
!!linebreak:original
=
4ff
8.ffL
16ggJk
=
4aa
4bb
=
8.ggL
16ffJk
16ggLL
16ff
16ee
16ffJJ
=
4.gg
8ff
=
4ee
8.eeL
16ffJk
=
4.gg
8ff
=
4ee
8.eeL
16ffJk
!!linebreak:original
=
4.gg
8ff
=
4ee
8ggL
8aaJ
=
4.bb
16aaLL
16ggJJ
=
4ff
8.ffL
16ggJk
=
4aa
4bb
=
4gg
8ffL
16ggL
16ffJJ
=
[2ee
=
4ee]
8.ggL
16aaJk
=||
4bb
4bb
=
8.bbL
16cccJk
8.bbL
16aaJk
=
4gg
[4gg
!!linebreak:original
=
8ggL]
16ee'L
16ffJJ
8ggL
16aa'L
16ggJJ
=
4ff
[4ff
=
8ffL]
16ddL
16eeJJ
16ffLL
16gg
16aa
16bbJJ
=
4gg
16ggLL
16aa
16gg
16ffJJ
=
4ee
8.ggL
16aaJk
=
4bb
4bb
=
8.bbL
16cccJk
8.bbL
16aaJk
=
4gg
[4gg
=
8ggL]
16ee'L
16ffJJ
8ggL
16aa'L
16ggJJ
!!pagebreak:original
=
4ff
[4ff
!!linebreak:original
=
8ffL]
16ddL
16eeJJ
8ffL
16ggL
16ffJJ
=
[2ee
=
4ee]
8.ggL
16aaJk
=||
4bb
4bb
=
8.bbL
16cccJk
8.bbL
16aaJk
=
4gg
[4gg
!!linebreak:original
=
8ggL]
16ee'L
16ffJJ
8ggL
16aa'L
16ggJJ
=
4ff
[4ff
=
8ffL]
16ddL
16eeJJ
16ffLL
16gg
16aa
16bbJJ
=
4gg
16ggLL
16aa
16gg
16ffJJ
=
4ee
8.ggL
16aaJk
=
4bb
4bb
=
8.bbL
16cccJk
8.bbL
16aaJk
=
4gg
[4gg
=
8ggL]
16ee'L
16ffJJ
8ggL
16aa'L
16ggJJ
!!linebreak:original
=
4ff
[4ff
!!linebreak:original
=
8ffL]
16ddL
16eeJJ
8ffL
16ggL
16ffJJ
=
2ee
=
4ee
8.eeL
16ffJk
=||
[2ee
=
8ee]
8r
4r
==
*-
!!!system-decoration: s1,s2
